m/partners/pnr15.svg

<svg width="120" height="40" viewBox="0 0 120 40" fill="none" xmlns="http://www.w3.org/2000/svg">
<path d="M50.704 20.6041C50.704 25.0458 47.1046 28.3188 42.6874 28.3188C38.2702 28.3188 34.6709 25.0458 34.6709 20.6041C34.6709 16.131 38.2702 12.8893 42.6874 12.8893C47.1046 12.8893 50.704 16.131 50.704 20.6041ZM47.1947 20.6041C47.1947 17.8284 45.1086 15.9293 42.6874 15.9293C40.2663 15.9293 38.1802 17.8284 38.1802 20.6041C38.1802 23.3519 40.2663 25.2788 42.6874 25.2788C45.1086 25.2788 47.1947 23.3484 47.1947 20.6041Z" fill="#2B354E"/>
<path d="M67.9984 20.6041C67.9984 25.0458 64.3991 28.3188 59.9819 28.3188C55.5647 28.3188 51.9653 25.0458 51.9653 20.6041C51.9653 16.1345 55.5647 12.8893 59.9819 12.8893C64.3991 12.8893 67.9984 16.131 67.9984 20.6041ZM64.4892 20.6041C64.4892 17.8284 62.4031 15.9293 59.9819 15.9293C57.5607 15.9293 55.4746 17.8284 55.4746 20.6041C55.4746 23.3519 57.5607 25.2788 59.9819 25.2788C62.4031 25.2788 64.4892 23.3484 64.4892 20.6041Z" fill="#2B354E"/>
<path d="M84.5717 13.3554V27.2058C84.5717 32.9032 81.0912 35.2302 76.9767 35.2302C73.1035 35.2302 70.7724 32.7293 69.8933 30.6841L72.9486 29.4562C73.4926 30.7119 74.8257 32.1936 76.9731 32.1936C79.6068 32.1936 81.2389 30.6249 81.2389 27.6719V26.5623H81.1164C80.331 27.498 78.8178 28.3154 76.9082 28.3154C72.9125 28.3154 69.252 24.9554 69.252 20.6319C69.252 16.2771 72.9125 12.8893 76.9082 12.8893C78.8142 12.8893 80.3274 13.7067 81.1164 14.6145H81.2389V13.3588H84.5717V13.3554ZM81.4875 20.6319C81.4875 17.9154 79.6104 15.9293 77.2217 15.9293C74.8005 15.9293 72.772 17.9154 72.772 20.6319C72.772 23.3206 74.8005 25.2788 77.2217 25.2788C79.6104 25.2788 81.4875 23.3206 81.4875 20.6319Z" fill="#2B354E"/>
<path d="M90.0663 5.23706V27.8458H86.6436V5.23706H90.0663Z" fill="#2B354E"/>
<path d="M103.405 23.1431L106.128 24.8962C105.249 26.1518 103.131 28.3153 99.4701 28.3153C94.9304 28.3153 91.54 24.9275 91.54 20.6005C91.54 16.0127 94.9592 12.8857 99.0774 12.8857C103.224 12.8857 105.253 16.0718 105.916 17.7936L106.28 18.6701L95.597 22.9414C96.4148 24.4892 97.6867 25.2788 99.4701 25.2788C101.257 25.2788 102.497 24.4301 103.405 23.1431ZM95.0205 20.3675L102.162 17.5049C101.769 16.5414 100.587 15.8701 99.1963 15.8701C97.4128 15.8701 94.9304 17.3901 95.0205 20.3675Z" fill="#2B354E"/>
<path d="M21.715 18.5971V15.324H33.1399C33.2516 15.8944 33.3092 16.5692 33.3092 17.2997C33.3092 19.7553 32.6139 22.7918 30.3728 24.9553C28.193 27.1466 25.408 28.3153 21.7186 28.3153C14.8802 28.3153 9.12988 22.9379 9.12988 16.3362C9.12988 9.73445 14.8802 4.35706 21.7186 4.35706C25.5016 4.35706 28.1966 5.7901 30.2215 7.65793L27.8291 9.96749C26.3772 8.65271 24.41 7.6301 21.715 7.6301C16.7213 7.6301 12.8157 11.5153 12.8157 16.3362C12.8157 21.1571 16.7213 25.0423 21.715 25.0423C24.954 25.0423 26.7987 23.7866 27.9805 22.6458C28.9389 21.7205 29.5694 20.3988 29.818 18.5936L21.715 18.5971Z" fill="#2B354E"/>
</svg>

<svg xmlns="http://www.w3.org/2000/svg" fill="none" viewBox="0 0 120 40"><path fill="#2B354E" d="M50.704 20.604c0 4.442-3.6 7.715-8.017 7.715s-8.016-3.273-8.016-7.715c0-4.473 3.6-7.715 8.016-7.715 4.418 0 8.017 3.242 8.017 7.715Zm-3.51 0c0-2.776-2.085-4.675-4.507-4.675-2.42 0-4.507 1.9-4.507 4.675 0 2.748 2.086 4.675 4.507 4.675 2.422 0 4.508-1.93 4.508-4.675ZM67.998 20.604c0 4.442-3.599 7.715-8.016 7.715s-8.017-3.273-8.017-7.715c0-4.47 3.6-7.715 8.017-7.715s8.016 3.242 8.016 7.715Zm-3.509 0c0-2.776-2.086-4.675-4.507-4.675s-4.507 1.9-4.507 4.675c0 2.748 2.086 4.675 4.507 4.675s4.507-1.93 4.507-4.675ZM84.572 13.355v13.85c0 5.698-3.48 8.025-7.595 8.025a7.605 7.605 0 0 1-7.084-4.546l3.056-1.228c.544 1.256 1.877 2.738 4.024 2.738 2.634 0 4.266-1.57 4.266-4.522v-1.11h-.123c-.785.936-2.298 1.753-4.208 1.753-3.996 0-7.656-3.36-7.656-7.683 0-4.355 3.66-7.743 7.656-7.743 1.906 0 3.42.818 4.208 1.726h.123v-1.256h3.333v-.004Zm-3.085 7.277c0-2.717-1.877-4.703-4.265-4.703-2.421 0-4.45 1.986-4.45 4.703 0 2.689 2.028 4.647 4.45 4.647 2.388 0 4.266-1.958 4.266-4.647ZM90.066 5.237v22.609h-3.422V5.237h3.422ZM103.405 23.143l2.723 1.753c-.879 1.256-2.997 3.42-6.658 3.42-4.54 0-7.93-3.389-7.93-7.715 0-4.588 3.42-7.715 7.537-7.715 4.147 0 6.176 3.186 6.839 4.908l.364.876-10.683 4.271c.818 1.548 2.09 2.338 3.873 2.338 1.787 0 3.027-.849 3.935-2.136Zm-8.385-2.776 7.142-2.862c-.393-.964-1.575-1.635-2.966-1.635-1.783 0-4.266 1.52-4.175 4.498ZM21.715 18.597v-3.273H33.14c.112.57.17 1.245.17 1.976 0 2.455-.696 5.492-2.937 7.655-2.18 2.192-4.965 3.36-8.654 3.36-6.839 0-12.59-5.377-12.59-11.979 0-6.602 5.751-11.979 12.59-11.979 3.783 0 6.478 1.433 8.502 3.3l-2.392 2.31C26.377 8.653 24.41 7.63 21.715 7.63c-4.994 0-8.9 3.885-8.9 8.706s3.906 8.706 8.9 8.706c3.239 0 5.084-1.255 6.265-2.396.959-.925 1.59-2.247 1.838-4.052l-8.103.003Z"/></svg>
